views/1/public/assets/Bestchange.svg

<svg fill="none" height="80" viewBox="0 0 180 80" width="180" xmlns="http://www.w3.org/2000/svg"><path d="m76.752 55h-55.2499c-1.9354 0-3.5021-1.5632-3.5021-3.4942v-23.0115c0-1.9311 1.5667-3.4943 3.5021-3.4943h55.2499z" fill="#ececf1"/><path d="m35.9482 43.1953c0 1.1379-.1613 2.046-.4723 2.7241-.3111.6782-.7258 1.1954-1.2211 1.5402-.4954.3564-1.0484.5863-1.6589.7012-.6106.1149-1.2096.1724-1.7971.1724h-5.8407v-16.5402h6.4282c.8294 0 1.4976.1379 2.0275.4138.5299.2758.9446.6322 1.2557 1.0805.311.4482.5184.9425.6336 1.4827s.1613 1.0805.1497 1.5977c-.023 1.5057-.4031 2.5288-1.1404 3.069.4838.2299.8755.6437 1.1865 1.2414.2995.6092.4493 1.4483.4493 2.5172zm-3.5942-6.7701c0-.5173-.0576-.9081-.1844-1.1609-.1267-.2529-.3686-.3793-.7372-.3793h-3.3293v3.2988h3.0297c.4724 0 .7834-.1609.9562-.4713.1728-.3218.265-.7586.265-1.2873zm.4377 6.7931c0-.4598-.0345-.8276-.1152-1.0919-.0691-.2644-.1728-.4828-.288-.6323-.1152-.1494-.2419-.2528-.3917-.2988-.1382-.046-.2764-.069-.4147-.069h-3.479v3.9656h3.2141c.5529 0 .9446-.1494 1.152-.4368.2188-.2989.3225-.7701.3225-1.4368zm15.7594 5.1149h-10.5293v-16.5402h10.345v3.2069h-7.2116v3.0459h6.6356v3.207h-6.6356v3.8505h7.3959zm12.1881-4.885c0 3.4827-1.8777 5.2299-5.6332 5.2299-1.8202 0-3.2141-.5173-4.1703-1.5403-.9561-1.0345-1.4285-2.6207-1.4285-4.7701h3.0528c.0231.4713.0807.9196.1613 1.3103.0807.4024.2304.7357.4378 1.0231.2073.2873.4723.5057.8064.6666s.7603.2414 1.2787.2414c.8525 0 1.463-.1609 1.8432-.4713.3802-.3103.576-.931.576-1.8276 0-.4712-.0806-.8161-.2304-1.023-.1498-.2068-.3917-.3678-.7142-.4942-.3687-.138-.818-.2414-1.3364-.3218-.5184-.0805-1.1174-.2069-1.7856-.3909-.5184-.1494-1.0022-.3218-1.44-.5172-.4377-.1954-.8294-.4597-1.1635-.8161-.3341-.3563-.5875-.8161-.7718-1.3793s-.2765-1.3104-.2765-2.2299c0-.6781.0806-1.2643.2534-1.7586.1613-.4943.3917-.9195.6682-1.2644.2765-.3448.599-.6206.9562-.839.3686-.2184.7372-.3793 1.1174-.4943s.7603-.1954 1.1405-.2299c.3801-.0345.7373-.0575 1.0483-.0575 1.0829 0 1.9699.1724 2.6381.5058.6797.3333 1.1981.7816 1.5782 1.3103.3802.5403.6336 1.1494.7603 1.8161.1268.6782.1959 1.3449.1959 2h-2.9952c-.0461-.2758-.0807-.5862-.1152-.9195-.0231-.3333-.1037-.6322-.2189-.8736-.1037-.2184-.2765-.4138-.5414-.5862-.265-.1724-.6797-.2644-1.2442-.2644-.4378 0-.8064.0346-1.0944.115s-.5069.1954-.6682.3448c-.1612.1495-.2764.3563-.334.5977s-.0922.5403-.0922.8736c0 .4023.0922.6896.265.862.1728.1725.5068.3219.9907.4483.5069.138 1.0137.2529 1.5321.3448.5184.092 1.0138.207 1.4976.3334.4839.1264.9332.2988 1.3479.5172s.7833.5058 1.0944.8851c.311.3793.5645.8621.7373 1.4483.1958.5862.2764 1.3218.2764 2.1954zm11.4395-8.4598h-3.7902v13.3448h-3.1449v-13.3448h-3.7901v-3.1954h10.7135v3.1954z" fill="#030217"/><path d="m92.4998 42.2531c-.0688.862-.2187 1.6781-.4491 2.4598-.2304.7816-.5648 1.4597-1.0021 2.0344-.4379.5862-1.0139 1.046-1.7168 1.3909-.7024.3448-1.5552.5172-2.5573.5172-1.152 0-2.1312-.1954-2.9376-.5862s-1.4518-.9655-1.9584-1.7012c-.4955-.7471-.864-1.6666-1.0827-2.7586-.2304-1.092-.3456-2.3333-.3456-3.7356 0-1.2874.1264-2.4598.3685-3.4943.2416-1.0345.6219-1.9195 1.1403-2.6552.5184-.7241 1.1749-1.2873 1.9584-1.6781.7952-.3908 1.7397-.5862 2.8341-.5862 1.1056 0 2.0043.1724 2.7072.5172.7024.3449 1.2555.7931 1.6816 1.3448.415.5518.7147 1.184.8987 1.8851.1845.7012.3109 1.4138.392 2.115h-2.9723c-.0693-.3679-.1498-.7242-.2421-1.0575-.0805-.3333-.2187-.6322-.3915-.8736s-.4149-.4368-.7141-.5862c-.2997-.1494-.7029-.2184-1.2096-.2184-.6107 0-1.1291.1034-1.544.2989-.4144.1954-.76.5172-1.0139.9655-.2533.4483-.4373 1.0345-.5525 1.7586-.1152.7242-.1616 1.6207-.1616 2.6896 0 1.0805.0805 1.9426.2304 2.6207.1499.6667.3685 1.1955.6453 1.5633.2763.3793.6107.6321 1.0139.7701.4032.1379.8405.2069 1.336.2069.5072 0 .8987-.0805 1.1984-.2299.2992-.1494.5296-.3678.7024-.6551.1728-.2874.3109-.6208.4032-1.0115.104-.3909.1957-.8277.2997-1.3219h3.0411zm12.6142 6.0805h-3.133v-7.138h-4.7233v7.138h-3.1334v-16.5403h3.1334v6.1724h4.7233v-6.1724h3.133zm13.214 0h-3.284l-.864-3.4139h-4.17l-.852 3.4139h-3.168l4.539-16.5403h3.11zm-4.931-6.4943-1.29-5.3219-1.325 5.3219zm14.135 6.4943-4.792-10.069v10.069h-3.134v-16.5403h3.076l4.827 10v-10h3.111v16.5403zm17.223 0h-2.546v-1.6782c-.184.4023-.415.7241-.692.977-.276.2529-.576.4483-.898.5977s-.668.2414-1.014.2988c-.345.0575-.691.0805-1.025.0805-1.152 0-2.12-.2184-2.891-.6666-.773-.4483-1.395-1.0575-1.867-1.8392-.472-.7815-.806-1.7126-1.002-2.7815-.196-1.069-.299-2.2184-.299-3.4483 0-5.6092 2.107-8.4138 6.336-8.4138 1.048 0 1.923.1724 2.649.5057.726.3334 1.313.7931 1.762 1.3449.45.5632.773 1.2068.968 1.9195.196.7242.3 1.4713.3 2.2299h-3.203c0-.3334-.023-.6782-.069-1.0345s-.15-.6667-.311-.9425c-.161-.2759-.415-.5058-.749-.6782s-.783-.2644-1.359-.2644-1.072.092-1.463.2874c-.403.1954-.726.4942-.979.9081-.254.4138-.438.9539-.553 1.6091-.116.6552-.173 1.4483-.173 2.3679 0 1.0115.046 1.885.15 2.6091.103.7242.276 1.3104.529 1.7472.254.4483.588.7701 1.003.977.414.2069.945.3103 1.589.3103.369 0 .715-.0574 1.049-.1724.334-.1149.622-.2988.864-.5402s.438-.5632.576-.9425.196-.8391.184-1.3794h-2.949v-3.0459h6.106v9.0575zm12.476 0h-10.507v-16.5403h10.322v3.2069h-7.188v3.046h6.612v3.2069h-6.612v3.8506h7.373z" fill="#ececf1"/></svg>

<?xml version="1.0" encoding="UTF-8"?> <svg xmlns="http://www.w3.org/2000/svg" width="180" height="80" viewBox="0 0 180 80" fill="none"><path d="M76.752 55H21.5021C19.5667 55 18 53.4368 18 51.5058V28.4943C18 26.5632 19.5667 25 21.5021 25H76.752V55Z" fill="#ECECF1"></path><path d="M35.9482 43.1953C35.9482 44.3332 35.7869 45.2413 35.4759 45.9194C35.1648 46.5976 34.7501 47.1148 34.2548 47.4596C33.7594 47.816 33.2064 48.0459 32.5959 48.1608C31.9853 48.2757 31.3863 48.3332 30.7988 48.3332H24.9581V31.793H31.3863C32.2157 31.793 32.8839 31.9309 33.4138 32.2068C33.9437 32.4826 34.3584 32.839 34.6695 33.2873C34.9805 33.7355 35.1879 34.2298 35.3031 34.77C35.4183 35.3102 35.4644 35.8505 35.4528 36.3677C35.4298 37.8734 35.0497 38.8965 34.3124 39.4367C34.7962 39.6666 35.1879 40.0804 35.4989 40.6781C35.7984 41.2873 35.9482 42.1264 35.9482 43.1953ZM32.354 36.4252C32.354 35.9079 32.2964 35.5171 32.1696 35.2643C32.0429 35.0114 31.801 34.885 31.4324 34.885H28.1031V38.1838H31.1328C31.6052 38.1838 31.9162 38.0229 32.089 37.7125C32.2618 37.3907 32.354 36.9539 32.354 36.4252ZM32.7917 43.2183C32.7917 42.7585 32.7572 42.3907 32.6765 42.1264C32.6074 41.862 32.5037 41.6436 32.3885 41.4941C32.2733 41.3447 32.1466 41.2413 31.9968 41.1953C31.8586 41.1493 31.7204 41.1263 31.5821 41.1263H28.1031V45.0919H31.3172C31.8701 45.0919 32.2618 44.9425 32.4692 44.6551C32.688 44.3562 32.7917 43.885 32.7917 43.2183ZM48.5511 48.3332H38.0218V31.793H48.3668V34.9999H41.1552V38.0458H47.7908V41.2528H41.1552V45.1033H48.5511V48.3332ZM60.7392 43.4482C60.7392 46.9309 58.8615 48.6781 55.106 48.6781C53.2858 48.6781 51.8919 48.1608 50.9357 47.1378C49.9796 46.1033 49.5072 44.5171 49.5072 42.3677H52.56C52.5831 42.839 52.6407 43.2873 52.7213 43.678C52.802 44.0804 52.9517 44.4137 53.1591 44.7011C53.3664 44.9884 53.6314 45.2068 53.9655 45.3677C54.2996 45.5286 54.7258 45.6091 55.2442 45.6091C56.0967 45.6091 56.7072 45.4482 57.0874 45.1378C57.4676 44.8275 57.6634 44.2068 57.6634 43.3102C57.6634 42.839 57.5828 42.4941 57.433 42.2872C57.2832 42.0804 57.0413 41.9194 56.7188 41.793C56.3501 41.655 55.9008 41.5516 55.3824 41.4712C54.864 41.3907 54.265 41.2643 53.5968 41.0803C53.0784 40.9309 52.5946 40.7585 52.1568 40.5631C51.7191 40.3677 51.3274 40.1034 50.9933 39.747C50.6592 39.3907 50.4058 38.9309 50.2215 38.3677C50.0372 37.8045 49.945 37.0573 49.945 36.1378C49.945 35.4597 50.0256 34.8735 50.1984 34.3792C50.3597 33.8849 50.5901 33.4597 50.8666 33.1148C51.1431 32.77 51.4656 32.4942 51.8228 32.2758C52.1914 32.0574 52.56 31.8965 52.9402 31.7815C53.3204 31.6665 53.7005 31.5861 54.0807 31.5516C54.4608 31.5171 54.818 31.4941 55.129 31.4941C56.2119 31.4941 57.0989 31.6665 57.7671 31.9999C58.4468 32.3332 58.9652 32.7815 59.3453 33.3102C59.7255 33.8505 59.9789 34.4596 60.1056 35.1263C60.2324 35.8045 60.3015 36.4712 60.3015 37.1263H57.3063C57.2602 36.8505 57.2256 36.5401 57.1911 36.2068C57.168 35.8735 57.0874 35.5746 56.9722 35.3332C56.8685 35.1148 56.6957 34.9194 56.4308 34.747C56.1658 34.5746 55.7511 34.4826 55.1866 34.4826C54.7488 34.4826 54.3802 34.5172 54.0922 34.5976C53.8042 34.678 53.5853 34.793 53.424 34.9424C53.2628 35.0919 53.1476 35.2987 53.09 35.5401C53.0324 35.7815 52.9978 36.0804 52.9978 36.4137C52.9978 36.816 53.09 37.1033 53.2628 37.2757C53.4356 37.4482 53.7696 37.5976 54.2535 37.724C54.7604 37.862 55.2672 37.9769 55.7856 38.0688C56.304 38.1608 56.7994 38.2758 57.2832 38.4022C57.7671 38.5286 58.2164 38.701 58.6311 38.9194C59.0458 39.1378 59.4144 39.4252 59.7255 39.8045C60.0365 40.1838 60.29 40.6666 60.4628 41.2528C60.6586 41.839 60.7392 42.5746 60.7392 43.4482ZM72.1787 34.9884H68.3885V48.3332H65.2436V34.9884H61.4535V31.793H72.167V34.9884H72.1787Z" fill="#030217"></path><path d="M92.4998 42.2531C92.431 43.1151 92.2811 43.9312 92.0507 44.7129C91.8203 45.4945 91.4859 46.1726 91.0486 46.7473C90.6107 47.3335 90.0347 47.7933 89.3318 48.1382C88.6294 48.483 87.7766 48.6554 86.7745 48.6554C85.6225 48.6554 84.6433 48.46 83.8369 48.0692C83.0305 47.6784 82.3851 47.1037 81.8785 46.368C81.383 45.6209 81.0145 44.7014 80.7958 43.6094C80.5654 42.5174 80.4502 41.2761 80.4502 39.8738C80.4502 38.5864 80.5766 37.414 80.8187 36.3795C81.0603 35.345 81.4406 34.46 81.959 33.7243C82.4774 33.0002 83.1339 32.437 83.9174 32.0462C84.7126 31.6554 85.6571 31.46 86.7515 31.46C87.8571 31.46 88.7558 31.6324 89.4587 31.9772C90.1611 32.3221 90.7142 32.7703 91.1403 33.322C91.5553 33.8738 91.855 34.506 92.039 35.2071C92.2235 35.9083 92.3499 36.6209 92.431 37.3221H89.4587C89.3894 36.9542 89.3089 36.5979 89.2166 36.2646C89.1361 35.9313 88.9979 35.6324 88.8251 35.391C88.6523 35.1496 88.4102 34.9542 88.111 34.8048C87.8113 34.6554 87.4081 34.5864 86.9014 34.5864C86.2907 34.5864 85.7723 34.6898 85.3574 34.8853C84.943 35.0807 84.5974 35.4025 84.3435 35.8508C84.0902 36.2991 83.9062 36.8853 83.791 37.6094C83.6758 38.3336 83.6294 39.2301 83.6294 40.299C83.6294 41.3795 83.7099 42.2416 83.8598 42.9197C84.0097 43.5864 84.2283 44.1152 84.5051 44.483C84.7814 44.8623 85.1158 45.1151 85.519 45.2531C85.9222 45.391 86.3595 45.46 86.855 45.46C87.3622 45.46 87.7537 45.3795 88.0534 45.2301C88.3526 45.0807 88.583 44.8623 88.7558 44.575C88.9286 44.2876 89.0667 43.9542 89.159 43.5635C89.263 43.1726 89.3547 42.7358 89.4587 42.2416H92.4998V42.2531ZM105.114 48.3336H101.981V41.1956H97.2577V48.3336H94.1243V31.7933H97.2577V37.9657H101.981V31.7933H105.114V48.3336ZM118.328 48.3336H115.044L114.18 44.9197H110.01L109.158 48.3336H105.99L110.529 31.7933H113.639L118.328 48.3336ZM113.397 41.8393L112.107 36.5174L110.782 41.8393H113.397ZM127.532 48.3336L122.74 38.2646V48.3336H119.606V31.7933H122.682L127.509 41.7933V31.7933H130.62V48.3336H127.532ZM144.755 48.3336H142.209V46.6554C142.025 47.0577 141.794 47.3795 141.517 47.6324C141.241 47.8853 140.941 48.0807 140.619 48.2301C140.297 48.3795 139.951 48.4715 139.605 48.5289C139.26 48.5864 138.914 48.6094 138.58 48.6094C137.428 48.6094 136.46 48.391 135.689 47.9428C134.916 47.4945 134.294 46.8853 133.822 46.1036C133.35 45.3221 133.016 44.391 132.82 43.3221C132.624 42.2531 132.521 41.1037 132.521 39.8738C132.521 34.2646 134.628 31.46 138.857 31.46C139.905 31.46 140.78 31.6324 141.506 31.9657C142.232 32.2991 142.819 32.7588 143.268 33.3106C143.718 33.8738 144.041 34.5174 144.236 35.2301C144.432 35.9543 144.536 36.7014 144.536 37.46H141.333C141.333 37.1266 141.31 36.7818 141.264 36.4255C141.218 36.0692 141.114 35.7588 140.953 35.483C140.792 35.2071 140.538 34.9772 140.204 34.8048C139.87 34.6324 139.421 34.5404 138.845 34.5404C138.269 34.5404 137.773 34.6324 137.382 34.8278C136.979 35.0232 136.656 35.322 136.403 35.7359C136.149 36.1497 135.965 36.6898 135.85 37.345C135.734 38.0002 135.677 38.7933 135.677 39.7129C135.677 40.7244 135.723 41.5979 135.827 42.322C135.93 43.0462 136.103 43.6324 136.356 44.0692C136.61 44.5175 136.944 44.8393 137.359 45.0462C137.773 45.2531 138.304 45.3565 138.948 45.3565C139.317 45.3565 139.663 45.2991 139.997 45.1841C140.331 45.0692 140.619 44.8853 140.861 44.6439C141.103 44.4025 141.299 44.0807 141.437 43.7014C141.575 43.3221 141.633 42.8623 141.621 42.322H138.672V39.2761H144.778V48.3336H144.755ZM157.231 48.3336H146.724V31.7933H157.046V35.0002H149.858V38.0462H156.47V41.2531H149.858V45.1037H157.231V48.3336Z" fill="#ECECF1"></path></svg>
